flaticon/transport/trolley.svg

<svg xmlns="http://www.w3.org/2000/svg" width="32" height="32" viewBox="0 0 24 24">
    <path d="M6.398438 16.800781C5.71875 16.800781 5.199219 17.320312 5.199219 18 5.199219 18.679688 5.71875 19.199219 6.398438 19.199219 7.078125 19.199219 7.601562 18.679688 7.601562 18 7.601562 17.320312 7.078125 16.800781 6.398438 16.800781zM6.398438 18.398438C6.160156 18.398438 6 18.238281 6 18 6 17.761719 6.160156 17.601562 6.398438 17.601562 6.640625 17.601562 6.800781 17.761719 6.800781 18 6.800781 18.238281 6.640625 18.398438 6.398438 18.398438zM17.601562 16.800781C16.921875 16.800781 16.398438 17.320312 16.398438 18 16.398438 18.679688 16.921875 19.199219 17.601562 19.199219 18.28125 19.199219 18.800781 18.679688 18.800781 18 18.800781 17.320312 18.28125 16.800781 17.601562 16.800781zM17.601562 18.398438C17.359375 18.398438 17.199219 18.238281 17.199219 18 17.199219 17.761719 17.359375 17.601562 17.601562 17.601562 17.839844 17.601562 18 17.761719 18 18 18 18.238281 17.839844 18.398438 17.601562 18.398438zM17.601562 6L6.398438 6C5.71875 6 5.199219 6.519531 5.199219 7.199219L5.199219 14.398438C5.199219 15.078125 5.71875 15.601562 6.398438 15.601562L17.601562 15.601562C18.28125 15.601562 18.800781 15.078125 18.800781 14.398438L18.800781 7.199219C18.800781 6.519531 18.28125 6 17.601562 6zM18 14.398438C18 14.640625 17.839844 14.800781 17.601562 14.800781L13.359375 14.800781 14.210938 13.949219C14.269531 13.917969 14.316406 13.871094 14.347656 13.8125L16.28125 11.878906C16.441406 11.71875 16.441406 11.480469 16.28125 11.320312 16.121094 11.160156 15.878906 11.160156 15.71875 11.320312L14.398438 12.640625 14.398438 12C14.398438 11.761719 14.238281 11.601562 14 11.601562 13.761719 11.601562 13.601562 11.761719 13.601562 12L13.601562 13.441406 12.238281 14.800781 8.558594 14.800781 9.410156 13.949219C9.46875 13.917969 9.515625 13.871094 9.546875 13.8125L11.480469 11.878906C11.640625 11.71875 11.640625 11.480469 11.480469 11.320312 11.320312 11.160156 11.078125 11.160156 10.917969 11.320312L9.601562 12.640625 9.601562 12C9.601562 11.761719 9.441406 11.601562 9.199219 11.601562 8.960938 11.601562 8.800781 11.761719 8.800781 12L8.800781 13.441406 7.441406 14.800781 6.398438 14.800781C6.160156 14.800781 6 14.640625 6 14.398438L6 7.199219C6 6.960938 6.160156 6.800781 6.398438 6.800781L17.601562 6.800781C17.839844 6.800781 18 6.960938 18 7.199219zM18 14.398438"/>
    <path d="M 23.28125 6.839844 L 22.359375 6.839844 C 21.960938 6.839844 21.640625 7.160156 21.640625 7.558594 L 21.640625 8.398438 L 20.800781 8.398438 L 20.800781 5.601562 C 20.800781 4.71875 20.078125 4 19.199219 4 L 15.464844 4 L 14.761719 1.878906 C 14.71875 1.71875 14.558594 1.601562 14.398438 1.601562 L 14.160156 1.601562 L 15.078125 0.679688 C 15.238281 0.519531 15.238281 0.28125 15.078125 0.121094 C 14.921875 -0.0390625 14.679688 -0.0390625 14.519531 0.121094 L 13.039062 1.601562 L 11.761719 1.601562 L 12.679688 0.679688 C 12.839844 0.519531 12.839844 0.28125 12.679688 0.121094 C 12.519531 -0.0390625 12.28125 -0.0390625 12.121094 0.121094 L 10.640625 1.601562 L 10 1.601562 C 9.839844 1.601562 9.679688 1.71875 9.640625 1.878906 L 8.933594 4 L 4.800781 4 C 3.921875 4 3.199219 4.71875 3.199219 5.601562 L 3.199219 8.398438 L 2.359375 8.398438 L 2.359375 7.558594 C 2.359375 7.160156 2.039062 6.839844 1.640625 6.839844 L 0.71875 6.839844 C 0.320312 6.839844 0 7.160156 0 7.558594 L 0 10.078125 C 0 10.480469 0.320312 10.800781 0.71875 10.800781 L 1.679688 10.800781 C 2.078125 10.800781 2.398438 10.480469 2.359375 10.078125 L 2.359375 9.199219 L 3.199219 9.199219 L 3.199219 19.601562 C 3.199219 20.34375 3.710938 20.96875 4.398438 21.148438 L 4.398438 22.398438 C 4.398438 23.28125 5.121094 24 6 24 L 7.601562 24 C 8.480469 24 9.199219 23.28125 9.199219 22.398438 L 9.199219 21.199219 L 14.800781 21.199219 L 14.800781 22.398438 C 14.800781 23.28125 15.519531 24 16.398438 24 L 18 24 C 18.878906 24 19.601562 23.28125 19.601562 22.398438 L 19.601562 21.148438 C 20.289062 20.96875 20.800781 20.34375 20.800781 19.601562 L 20.800781 9.199219 L 21.640625 9.199219 L 21.640625 10.078125 C 21.640625 10.480469 21.960938 10.800781 22.359375 10.800781 L 23.28125 10.800781 C 23.679688 10.800781 24 10.480469 24 10.078125 L 24 7.558594 C 24 7.160156 23.679688 6.839844 23.28125 6.839844 Z M 1.601562 10 L 0.800781 10 L 0.800781 7.601562 L 1.601562 7.601562 Z M 10.28125 2.398438 L 14.121094 2.398438 L 14.640625 4 L 9.761719 4 Z M 8.398438 22.398438 C 8.398438 22.839844 8.039062 23.199219 7.601562 23.199219 L 6 23.199219 C 5.558594 23.199219 5.199219 22.839844 5.199219 22.398438 L 5.199219 21.199219 L 8.398438 21.199219 Z M 18.800781 22.398438 C 18.800781 22.839844 18.441406 23.199219 18 23.199219 L 16.398438 23.199219 C 15.960938 23.199219 15.601562 22.839844 15.601562 22.398438 L 15.601562 21.199219 L 18.800781 21.199219 Z M 20 19.601562 C 20 20.039062 19.640625 20.398438 19.199219 20.398438 L 4.800781 20.398438 C 4.359375 20.398438 4 20.039062 4 19.601562 L 4 5.601562 C 4 5.160156 4.359375 4.800781 4.800781 4.800781 L 19.199219 4.800781 C 19.640625 4.800781 20 5.160156 20 5.601562 Z M 23.199219 10 L 22.398438 10 L 22.398438 7.601562 L 23.199219 7.601562 Z M 23.199219 10"/>
    <path d="M13.601562 17.601562C13.839844 17.601562 14 17.441406 14 17.199219 14 16.960938 13.839844 16.800781 13.601562 16.800781L10.398438 16.800781C10.160156 16.800781 10 16.960938 10 17.199219 10 17.441406 10.160156 17.601562 10.398438 17.601562zM14.800781 18.398438L9.199219 18.398438C8.960938 18.398438 8.800781 18.558594 8.800781 18.800781 8.800781 19.039062 8.960938 19.199219 9.199219 19.199219L14.800781 19.199219C15.039062 19.199219 15.199219 19.039062 15.199219 18.800781 15.199219 18.558594 15.039062 18.398438 14.800781 18.398438zM14.800781 18.398438"/>
</svg>

<svg xmlns="http://www.w3.org/2000/svg" width="32" height="32" viewBox="0 0 24 24">
    <path d="M6.398 16.8c-.68 0-1.199.52-1.199 1.2 0 .68.52 1.2 1.2 1.2.68 0 1.203-.52 1.203-1.2 0-.68-.524-1.2-1.204-1.2zm0 1.598C6.16 18.398 6 18.238 6 18c0-.238.16-.398.398-.398.243 0 .403.16.403.398 0 .238-.16.398-.403.398zm0 0M17.602 16.8c-.68 0-1.204.52-1.204 1.2 0 .68.524 1.2 1.204 1.2.68 0 1.199-.52 1.199-1.2 0-.68-.52-1.2-1.2-1.2zm0 1.598c-.243 0-.403-.16-.403-.398 0-.238.16-.398.403-.398.238 0 .398.16.398.398 0 .238-.16.398-.398.398zm0 0M17.602 6H6.398C5.718 6 5.2 6.52 5.2 7.2v7.198c0 .68.52 1.204 1.2 1.204h11.203c.68 0 1.199-.524 1.199-1.204V7.2C18.8 6.52 18.28 6 17.6 6zM18 14.398c0 .243-.16.403-.398.403h-4.243l.852-.852a.33.33 0 0 0 .137-.136l1.933-1.934a.385.385 0 0 0 0-.559.39.39 0 0 0-.562 0l-1.32 1.32V12c0-.238-.16-.398-.399-.398-.238 0-.398.16-.398.398v1.441l-1.364 1.36h-3.68l.852-.852a.33.33 0 0 0 .137-.136l1.933-1.934a.385.385 0 0 0 0-.559.39.39 0 0 0-.562 0l-1.316 1.32V12c0-.238-.16-.398-.403-.398-.238 0-.398.16-.398.398v1.441l-1.36 1.36H6.398c-.238 0-.398-.16-.398-.403V7.2c0-.238.16-.398.398-.398h11.204c.238 0 .398.16.398.398zm0 0"/>
    <path d="M23.281 6.84h-.922a.717.717 0 0 0-.718.719v.84h-.84V5.601C20.8 4.719 20.078 4 19.199 4h-3.734l-.703-2.121a.388.388 0 0 0-.364-.277h-.238l.918-.922a.385.385 0 0 0 0-.559.385.385 0 0 0-.558 0l-1.48 1.48h-1.278L12.68.68a.385.385 0 0 0 0-.559.385.385 0 0 0-.559 0l-1.48 1.48H10a.38.38 0 0 0-.36.278L8.935 4H4.8c-.88 0-1.602.719-1.602 1.602v2.796h-.84v-.84a.717.717 0 0 0-.718-.718H.719A.717.717 0 0 0 0 7.559v2.52c0 .401.32.722.719.722h.96c.4 0 .72-.32.68-.723V9.2h.84v10.403c0 .742.512 1.367 1.2 1.546v1.25C4.398 23.281 5.12 24 6 24h1.602c.878 0 1.597-.719 1.597-1.602V21.2h5.602v1.2c0 .882.719 1.601 1.597 1.601H18c.879 0 1.602-.719 1.602-1.602v-1.25c.687-.18 1.199-.804 1.199-1.546V9.199h.84v.88c0 .401.32.722.718.722h.922c.399 0 .719-.32.719-.723v-2.52a.717.717 0 0 0-.719-.718zM1.601 10h-.8V7.602h.8zm8.68-7.602h3.84L14.641 4H9.76zm-1.883 20c0 .442-.359.801-.796.801H6c-.441 0-.8-.36-.8-.8v-1.2h3.198zm10.403 0c0 .442-.36.801-.801.801h-1.602a.801.801 0 0 1-.796-.8v-1.2H18.8zM20 19.602c0 .437-.36.796-.8.796H4.8c-.44 0-.8-.359-.8-.796v-14c0-.442.36-.801.8-.801h14.4c.44 0 .8.36.8.8zM23.2 10h-.802V7.602h.801zm0 0"/>
    <path d="M13.602 17.602c.238 0 .398-.16.398-.403 0-.238-.16-.398-.398-.398h-3.204c-.238 0-.398.16-.398.398 0 .242.16.403.398.403zm0 0M14.8 18.398H9.2c-.24 0-.4.16-.4.403 0 .238.16.398.4.398h5.6c.24 0 .4-.16.4-.398 0-.242-.16-.403-.4-.403zm0 0"/>
</svg>
